flaticon/constructions/crane-1.svg

<svg xmlns="http://www.w3.org/2000/svg" width="32" height="32" viewBox="0 0 24 24">
    <path d="M 5.941406 20 C 5.914062 20 5.886719 20.003906 5.863281 20.007812 C 5.824219 20.003906 5.78125 20 5.738281 20 C 4.980469 20 4.339844 20.640625 4.339844 21.398438 C 4.339844 22.160156 4.980469 22.800781 5.738281 22.800781 C 5.78125 22.800781 5.824219 22.796875 5.863281 22.792969 C 5.886719 22.796875 5.914062 22.800781 5.941406 22.800781 L 17.140625 22.800781 C 17.164062 22.800781 17.1875 22.796875 17.210938 22.792969 C 17.253906 22.796875 17.296875 22.800781 17.339844 22.800781 C 18.101562 22.800781 18.738281 22.160156 18.738281 21.398438 C 18.738281 20.640625 18.101562 20 17.339844 20 C 17.296875 20 17.257812 20.003906 17.214844 20.007812 C 17.191406 20.003906 17.167969 20 17.140625 20 Z M 5.140625 21.398438 C 5.140625 21.078125 5.421875 20.800781 5.738281 20.800781 C 6.039062 20.800781 6.300781 21.042969 6.335938 21.335938 C 6.335938 21.339844 6.335938 21.339844 6.335938 21.339844 C 6.339844 21.359375 6.339844 21.378906 6.339844 21.398438 C 6.339844 21.417969 6.339844 21.4375 6.335938 21.457031 C 6.335938 21.460938 6.335938 21.460938 6.335938 21.460938 C 6.300781 21.753906 6.039062 22 5.738281 22 C 5.421875 22 5.140625 21.71875 5.140625 21.398438 Z M 7.140625 21.398438 C 7.140625 21.199219 7.101562 21 7.019531 20.800781 L 16.078125 20.800781 C 15.992188 20.984375 15.941406 21.1875 15.941406 21.398438 C 15.941406 21.613281 15.992188 21.816406 16.078125 22 L 7.019531 22 C 7.101562 21.800781 7.140625 21.601562 7.140625 21.398438 Z M 17.941406 21.398438 C 17.941406 21.71875 17.660156 22 17.339844 22 C 17.042969 22 16.777344 21.753906 16.742188 21.460938 C 16.742188 21.460938 16.742188 21.460938 16.742188 21.457031 C 16.742188 21.4375 16.738281 21.417969 16.738281 21.398438 C 16.738281 21.378906 16.742188 21.359375 16.742188 21.339844 C 16.777344 21.046875 17.039062 20.800781 17.339844 20.800781 C 17.660156 20.800781 17.941406 21.078125 17.941406 21.398438 Z M 17.941406 21.398438"/>
    <path d="M 19.941406 11.640625 L 19.941406 11.199219 L 20.339844 11.199219 C 20.578125 11.199219 20.738281 11.039062 20.738281 10.800781 C 20.738281 10.558594 20.578125 10.398438 20.339844 10.398438 L 19.941406 10.398438 L 19.941406 3.175781 C 20.6875 3.042969 21.261719 2.382812 21.261719 1.601562 C 21.261719 0.71875 20.539062 0 19.660156 0 C 18.867188 0 18.203125 0.585938 18.082031 1.34375 L 9.65625 10.398438 L 9.539062 10.398438 C 8.859375 10.398438 8.339844 10.921875 8.339844 11.601562 L 8.339844 14.398438 L 4.378906 14.398438 C 3.460938 14.398438 2.738281 15.160156 2.738281 16.039062 L 2.738281 18 C 2.738281 18.238281 2.898438 18.398438 3.140625 18.398438 L 9.140625 18.398438 L 9.140625 18.800781 L 5.339844 18.800781 C 3.898438 18.800781 2.738281 19.960938 2.738281 21.398438 C 2.738281 22.839844 3.898438 24 5.339844 24 L 17.738281 24 C 19.179688 24 20.339844 22.839844 20.339844 21.398438 C 20.339844 19.960938 19.179688 18.800781 17.738281 18.800781 L 13.941406 18.800781 L 13.941406 18.398438 L 15.140625 18.398438 C 15.378906 18.398438 15.539062 18.238281 15.539062 18 L 15.539062 16.554688 C 15.5625 16.503906 15.578125 16.453125 15.578125 16.398438 L 15.578125 13.28125 C 15.578125 12.320312 15.101562 11.441406 14.300781 10.878906 C 14.230469 10.832031 14.160156 10.789062 14.085938 10.75 L 15.363281 9.042969 C 15.433594 8.996094 15.480469 8.925781 15.507812 8.851562 L 18.113281 5.371094 C 18.191406 5.316406 18.246094 5.242188 18.273438 5.160156 L 19.140625 4 L 19.140625 10.398438 L 18.738281 10.398438 C 18.5 10.398438 18.339844 10.558594 18.339844 10.800781 C 18.339844 11.039062 18.5 11.199219 18.738281 11.199219 L 19.140625 11.199219 L 19.140625 12 C 19.140625 12.121094 19.179688 12.199219 19.261719 12.28125 C 19.339844 12.359375 19.421875 12.398438 19.539062 12.398438 C 19.980469 12.398438 20.339844 12.761719 20.339844 13.199219 C 20.339844 13.640625 19.980469 14 19.539062 14 C 19.101562 14 18.738281 13.640625 18.738281 13.199219 C 18.738281 12.960938 18.578125 12.800781 18.339844 12.800781 C 18.101562 12.800781 17.941406 12.960938 17.941406 13.199219 C 17.941406 14.078125 18.660156 14.800781 19.539062 14.800781 C 20.421875 14.800781 21.140625 14.078125 21.140625 13.199219 C 21.140625 12.441406 20.621094 11.800781 19.941406 11.640625 Z M 17.460938 4.679688 L 15.953125 4.867188 L 17.363281 3.359375 Z M 14.699219 8.359375 L 12.410156 8.65625 L 14.5625 6.355469 Z M 15.339844 5.761719 L 16.984375 5.558594 L 15.464844 7.585938 Z M 18.113281 2.558594 L 18.261719 2.398438 C 18.3125 2.476562 18.367188 2.546875 18.425781 2.617188 C 18.554688 2.773438 18.714844 2.90625 18.898438 3.003906 L 18.214844 3.914062 Z M 19.660156 0.800781 C 20.101562 0.800781 20.460938 1.160156 20.460938 1.601562 C 20.460938 2.039062 20.101562 2.398438 19.660156 2.398438 C 19.523438 2.398438 19.394531 2.363281 19.28125 2.304688 C 19.277344 2.304688 19.277344 2.300781 19.277344 2.300781 C 19.261719 2.292969 19.242188 2.28125 19.226562 2.273438 C 19.027344 2.136719 18.886719 1.917969 18.863281 1.675781 C 18.863281 1.652344 18.859375 1.625 18.859375 1.601562 C 18.859375 1.160156 19.21875 0.800781 19.660156 0.800781 Z M 14.738281 13.1875 C 14.738281 13.214844 14.738281 13.25 14.738281 13.28125 L 14.738281 15.800781 L 11.941406 14.800781 C 11.460938 14.601562 11.140625 14.160156 11.140625 13.640625 L 11.140625 11.199219 L 12.660156 11.199219 C 13.5 11.199219 14.261719 11.71875 14.578125 12.519531 C 14.683594 12.730469 14.726562 12.9375 14.738281 13.171875 C 14.738281 13.175781 14.738281 13.179688 14.738281 13.1875 Z M 5.941406 15.199219 C 5.941406 15.640625 5.578125 16 5.140625 16 L 3.542969 16 C 3.542969 15.992188 3.542969 15.984375 3.542969 15.980469 C 3.59375 15.546875 3.945312 15.199219 4.378906 15.199219 Z M 19.539062 21.398438 C 19.539062 22.398438 18.738281 23.199219 17.738281 23.199219 L 5.339844 23.199219 C 4.339844 23.199219 3.539062 22.398438 3.539062 21.398438 C 3.539062 20.398438 4.339844 19.601562 5.339844 19.601562 L 17.738281 19.601562 C 18.738281 19.601562 19.539062 20.398438 19.539062 21.398438 Z M 13.140625 18.800781 L 9.941406 18.800781 L 9.941406 18.398438 L 13.140625 18.398438 Z M 13.539062 17.601562 L 3.539062 17.601562 L 3.539062 16.800781 L 5.140625 16.800781 C 6.019531 16.800781 6.738281 16.078125 6.738281 15.199219 L 8.738281 15.199219 C 8.980469 15.199219 9.140625 15.039062 9.140625 14.800781 L 9.140625 11.601562 C 9.140625 11.398438 9.300781 11.199219 9.539062 11.199219 L 10.378906 11.199219 L 10.378906 13.640625 C 10.378906 14.519531 10.898438 15.28125 11.699219 15.558594 L 14.738281 16.660156 L 14.738281 17.601562 Z M 13.03125 10.425781 C 12.910156 10.410156 12.785156 10.398438 12.660156 10.398438 L 10.78125 10.398438 L 11.542969 9.585938 L 14.226562 9.242188 L 13.308594 10.46875 C 13.21875 10.449219 13.125 10.433594 13.03125 10.425781 Z M 13.03125 10.425781"/>
</svg>

<svg xmlns="http://www.w3.org/2000/svg" width="32" height="32" viewBox="0 0 24 24">
    <path d="M5.941 20a.48.48 0 0 0-.078.008A1.263 1.263 0 0 0 5.738 20c-.758 0-1.398.64-1.398 1.398 0 .762.64 1.403 1.398 1.403.043 0 .086-.004.125-.008a.48.48 0 0 0 .078.008h11.2c.023 0 .047-.004.07-.008.043.004.086.008.129.008.762 0 1.398-.64 1.398-1.403 0-.757-.636-1.398-1.398-1.398-.043 0-.082.004-.125.008-.024-.004-.047-.008-.074-.008zm-.8 1.398c0-.32.28-.597.597-.597.301 0 .563.242.598.535v.004c.004.02.004.039.004.058 0 .02 0 .04-.004.059v.004a.62.62 0 0 1-.598.539.617.617 0 0 1-.597-.602zm2 0c0-.199-.04-.398-.121-.597h9.058a1.41 1.41 0 0 0-.137.597c0 .215.051.418.137.602H7.02c.082-.2.12-.398.12-.602zm10.8 0c0 .32-.28.602-.601.602a.623.623 0 0 1-.598-.54v-.003c0-.02-.004-.039-.004-.059 0-.02.004-.039.004-.058a.62.62 0 0 1 .598-.54c.32 0 .601.278.601.598zm0 0"/>
    <path d="M19.941 11.64v-.44h.399c.238 0 .398-.16.398-.4 0-.241-.16-.402-.398-.402h-.399V3.176a1.609 1.609 0 0 0 1.32-1.574c0-.883-.722-1.602-1.6-1.602-.794 0-1.458.586-1.579 1.344l-8.426 9.054H9.54c-.68 0-1.2.524-1.2 1.204v2.796H4.38a1.65 1.65 0 0 0-1.64 1.641V18c0 .238.16.398.402.398h6v.403H5.34a2.595 2.595 0 0 0-2.602 2.597A2.596 2.596 0 0 0 5.34 24h12.398a2.596 2.596 0 0 0 2.602-2.602 2.595 2.595 0 0 0-2.602-2.597h-3.797v-.403h1.2c.238 0 .398-.16.398-.398v-1.445a.37.37 0 0 0 .04-.157v-3.117c0-.96-.477-1.84-1.278-2.402-.07-.047-.14-.09-.215-.129l1.277-1.707a.387.387 0 0 0 .145-.191l2.605-3.48a.42.42 0 0 0 .16-.212L19.141 4v6.398h-.403c-.238 0-.398.16-.398.403 0 .238.16.398.398.398h.403V12c0 .121.039.2.12.281.079.078.16.117.278.117a.802.802 0 0 1 0 1.602c-.437 0-.8-.36-.8-.8 0-.24-.16-.4-.4-.4-.237 0-.398.16-.398.4 0 .878.72 1.6 1.598 1.6.883 0 1.602-.722 1.602-1.6 0-.759-.52-1.4-1.2-1.56zm-2.48-6.96l-1.508.187 1.41-1.508zm-2.762 3.68l-2.289.296 2.152-2.3zm.64-2.598l1.645-.203-1.52 2.027zm2.774-3.203l.149-.16c.05.078.105.148.164.218.129.156.289.29.472.387l-.683.91zM19.66.8c.442 0 .8.36.8.8a.801.801 0 0 1-1.179.704c-.004 0-.004-.004-.004-.004l-.05-.028a.834.834 0 0 1-.364-.597c0-.024-.004-.051-.004-.074 0-.442.36-.801.801-.801zm-4.922 12.386v2.614l-2.797-1c-.48-.2-.8-.64-.8-1.16v-2.442h1.52c.839 0 1.6.52 1.917 1.32.106.211.149.418.16.653v.015zM5.941 15.2c0 .442-.363.801-.8.801H3.543v-.02c.05-.433.402-.78.836-.78zm13.598 6.2c0 1-.8 1.8-1.8 1.8h-12.4c-1 0-1.8-.8-1.8-1.8s.8-1.797 1.8-1.797h12.4c1 0 1.8.796 1.8 1.796zM13.141 18.8h-3.2v-.403h3.2zm.398-1.2h-10v-.8h1.602c.879 0 1.597-.723 1.597-1.602h2c.242 0 .403-.16.403-.398v-3.2a.4.4 0 0 1 .398-.402h.84v2.442c0 .879.52 1.64 1.32 1.918l3.04 1.101v.942zm-.508-7.175a2.911 2.911 0 0 0-.37-.028h-1.88l.762-.812 2.684-.344-.918 1.227a2.158 2.158 0 0 0-.278-.043zm0 0"/>
</svg>
